X:407
T: "Die Belagerung von Koeln"
N: Z1087
O: Europa, Mitteleuropa, Deutschland
R: Romanze, Ballade
M: 4/4
L: 1/8
K: A
E2 | A2G2A2B2 | ccccz2
B2 | cBcde2dc | cBBBz2
Bc | efedc3c | fedcB3
B | cBcde2dc | eeeee3
E | E4z2

